library/images/5e7e795389fbd7083209507c_phone.svg

<svg enable-background="new 0 0 512.006 512.006" height="512" viewBox="0 0 512.006 512.006" width="512" xmlns="http://www.w3.org/2000/svg"><g fill="#fff"><path d="m502.05 407.127-56.761-37.844-50.459-33.633c-9.738-6.479-22.825-4.355-30.014 4.873l-31.223 40.139c-6.707 8.71-18.772 11.213-28.39 5.888-21.186-11.785-46.239-22.881-101.517-78.23s-66.445-80.331-78.23-101.517c-5.325-9.618-2.822-21.683 5.888-28.389l40.139-31.223c9.227-7.188 11.352-20.275 4.873-30.014l-32.6-48.905-38.877-58.316c-6.617-9.926-19.863-12.906-30.093-6.771l-44.836 26.898c-12.117 7.139-21.024 18.667-24.876 32.194-12.261 44.703-14.733 143.316 143.307 301.356s256.644 155.56 301.347 143.298c13.527-3.851 25.055-12.758 32.194-24.876l26.898-44.835c6.136-10.231 3.156-23.476-6.77-30.093z"/><path d="m291.309 79.447c82.842.092 149.977 67.226 150.069 150.069 0 4.875 3.952 8.828 8.828 8.828 4.875 0 8.828-3.952 8.828-8.828-.102-92.589-75.135-167.622-167.724-167.724-4.875 0-8.828 3.952-8.828 8.828-.001 4.874 3.951 8.827 8.827 8.827z"/><path d="m291.309 132.412c53.603.063 97.04 43.501 97.103 97.103 0 4.875 3.952 8.828 8.828 8.828 4.875 0 8.828-3.952 8.828-8.828-.073-63.349-51.409-114.686-114.759-114.759-4.875 0-8.828 3.952-8.828 8.828s3.952 8.828 8.828 8.828z"/><path d="m291.309 185.378c24.365.029 44.109 19.773 44.138 44.138 0 4.875 3.952 8.828 8.828 8.828 4.875 0 8.828-3.952 8.828-8.828-.039-34.111-27.682-61.754-61.793-61.793-4.875 0-8.828 3.952-8.828 8.828-.001 4.875 3.951 8.827 8.827 8.827z"/></g></svg>

<?xml version="1.0"?>
<svg xmlns="http://www.w3.org/2000/svg" xmlns:xlink="http://www.w3.org/1999/xlink" version="1.1" id="Capa_1" x="0px" y="0px" viewBox="0 0 512.006 512.006" style="enable-background:new 0 0 512.006 512.006;" xml:space="preserve" width="512px" height="512px" class=""><g><g>
	<g>
		<g>
			<path d="M502.05,407.127l-56.761-37.844L394.83,335.65c-9.738-6.479-22.825-4.355-30.014,4.873l-31.223,40.139     c-6.707,8.71-18.772,11.213-28.39,5.888c-21.186-11.785-46.239-22.881-101.517-78.23c-55.278-55.349-66.445-80.331-78.23-101.517     c-5.325-9.618-2.822-21.683,5.888-28.389l40.139-31.223c9.227-7.188,11.352-20.275,4.873-30.014l-32.6-48.905L104.879,9.956     C98.262,0.03,85.016-2.95,74.786,3.185L29.95,30.083C17.833,37.222,8.926,48.75,5.074,62.277     C-7.187,106.98-9.659,205.593,148.381,363.633s256.644,155.56,301.347,143.298c13.527-3.851,25.055-12.758,32.194-24.876     l26.898-44.835C514.956,426.989,511.976,413.744,502.05,407.127z" data-original="#000000" class="active-path" data-old_color="#000000" fill="#FFFFFF"/>
			<path d="M291.309,79.447c82.842,0.092,149.977,67.226,150.069,150.069c0,4.875,3.952,8.828,8.828,8.828     c4.875,0,8.828-3.952,8.828-8.828c-0.102-92.589-75.135-167.622-167.724-167.724c-4.875,0-8.828,3.952-8.828,8.828     C282.481,75.494,286.433,79.447,291.309,79.447z" data-original="#000000" class="active-path" data-old_color="#000000" fill="#FFFFFF"/>
			<path d="M291.309,132.412c53.603,0.063,97.04,43.501,97.103,97.103c0,4.875,3.952,8.828,8.828,8.828     c4.875,0,8.828-3.952,8.828-8.828c-0.073-63.349-51.409-114.686-114.759-114.759c-4.875,0-8.828,3.952-8.828,8.828     C282.481,128.46,286.433,132.412,291.309,132.412z" data-original="#000000" class="active-path" data-old_color="#000000" fill="#FFFFFF"/>
			<path d="M291.309,185.378c24.365,0.029,44.109,19.773,44.138,44.138c0,4.875,3.952,8.828,8.828,8.828     c4.875,0,8.828-3.952,8.828-8.828c-0.039-34.111-27.682-61.754-61.793-61.793c-4.875,0-8.828,3.952-8.828,8.828     C282.481,181.426,286.433,185.378,291.309,185.378z" data-original="#000000" class="active-path" data-old_color="#000000" fill="#FFFFFF"/>
		</g>
	</g>
</g></g> </svg>
